X: 1
T: Polska ur J E Schedin och A G Ahlins notbok, nr 13
O: Västmanland
B: http://www.smus.se/earkiv/fmk/browselarge.php?lang=sw&katalogid=Vs+2&bildnr=00008
R: Polska
Z: Nils L
M: 3/4
L: 1/8
K: C
G2 cB/c/ d>B | B2 dc/d/ e>c | c2 a>f g>e | f>d e>c d>B | 
G2 cB/c/ d>c | c2 ed/e/ f>d | c2 a>f g>e | fd/B/ d2 c2 ::
cdcB ce g2 | g/a/g/f/ gc' e2 | e2 ga/g/ fd | B/G/B/d/ fd BG | c/d/c/B/ ce "^? (svårtydd)"g2 |
g/a/g/f/ gc' e2 | e2 ga/g/ fd | BG/B/ d2 c z2 :|

